src/img/starbase-vert.svg

<svg width="72" height="590" viewBox="0 0 72 590" fill="none" xmlns="http://www.w3.org/2000/svg">
<g opacity="0.65">
<mask id="mask0" style="mask-type:alpha" maskUnits="userSpaceOnUse" x="58" y="400" width="14" height="40">
<path d="M71.0609 439.405L58.8248 419.972L71.0609 400.539C68.4813 413.494 68.4813 426.449 71.0609 439.405Z" fill="white"/>
</mask>
<g mask="url(#mask0)">
<path fill-rule="evenodd" clip-rule="evenodd" d="M71.0609 439.405L58.8248 419.972L71.0609 400.539C68.4813 413.494 68.4813 426.449 71.0609 439.405Z" fill="#F3F7F9"/>
</g>
<path fill-rule="evenodd" clip-rule="evenodd" d="M71.0609 290.178L71.0609 245.553C71.0609 235.477 65.3681 228.519 57.1234 228.519L45.5418 228.519C40.7325 228.519 37.1992 231.399 34.9413 237.036C32.4878 231.998 28.9545 229.479 24.3412 229.479L14.33 229.479C6.0853 229.479 0.392786 236.436 0.392786 246.513L0.392787 290.178L71.0609 290.178ZM13.545 272.904L13.545 250.832C13.545 248.073 14.6245 246.753 16.8821 246.753L25.323 246.753C28.071 246.753 28.66 247.593 28.66 250.832L28.66 272.904L13.545 272.904ZM41.2232 272.904L41.2232 251.311C41.2232 247.353 41.6157 245.793 44.364 245.793L54.5716 245.793C56.8292 245.793 57.9087 247.113 57.9087 249.872L57.9087 272.904L41.2232 272.904ZM55.1607 168.061L71.0609 162.423L71.0609 143.829L0.392785 171.659L0.392786 191.812L71.0609 219.643L71.0609 201.769L55.1607 196.011L55.1607 168.061ZM41.8122 172.739L41.8122 191.213L15.9005 181.856L41.8122 172.739ZM22.1822 75.5735L13.9372 75.5735C5.6926 75.5735 -2.20865e-06 82.5309 -2.10147e-06 92.6074L-1.83097e-06 118.038C-1.72379e-06 128.115 5.6926 135.072 13.9372 135.072L25.912 135.072C33.3711 135.072 38.1804 127.875 40.0455 117.798L43.9715 95.4862C44.4622 92.6074 45.2475 91.408 47.3085 91.408L54.7679 91.408C57.0254 91.408 58.1049 92.7272 58.1049 95.4862L58.1049 114.2C58.1049 116.959 57.0254 118.279 54.7679 118.279L48.4863 118.279L48.4863 135.072L57.5162 135.072C65.7609 135.072 71.4534 128.115 71.4534 118.038L71.4534 91.1679C71.4534 81.0914 65.7609 74.1338 57.5162 74.1338L44.7565 74.1338C37.2972 74.1338 32.4878 81.3311 30.6231 91.408L26.697 113.72C26.2062 116.599 25.4212 117.798 23.3599 117.798L16.6855 117.798C14.428 117.798 13.3485 116.479 13.3485 113.72L13.3485 96.4459C13.3485 93.6871 14.428 92.3673 16.6855 92.3673L22.1822 92.3673L22.1822 75.5735ZM71.0609 56.5001L71.0609 0.000109305L57.7124 0.000111703L57.7124 39.226L41.6157 39.226L41.6157 7.43722L28.2672 7.43722L28.2672 39.226L28.2672 56.5001L71.0609 56.5001ZM13.741 39.226L13.741 0.000119602L0.392784 0.000122L0.392784 56.5001L13.741 56.5001L13.741 39.226Z" fill="#F3F7F9"/>
<path fill-rule="evenodd" clip-rule="evenodd" d="M44.2658 320.047C42.5973 312.85 37.5917 308.291 30.9176 308.291L14.33 308.291C6.08529 308.291 0.392784 315.248 0.392784 325.325L0.392784 369.35L71.0609 369.35L71.0609 352.076L44.8545 352.076L44.8545 338.16L71.0609 324.245L71.0609 305.652L44.2658 320.047ZM22.1822 529.733L13.9372 529.733C5.6926 529.733 -5.5886e-07 536.69 -4.51677e-07 546.767L-1.81182e-07 572.198C-7.40031e-08 582.274 5.6926 589.232 13.9372 589.232L25.912 589.232C33.3711 589.232 38.1804 582.035 40.0455 571.958L43.9715 549.646C44.4622 546.767 45.2475 545.568 47.3085 545.568L54.7679 545.568C57.0254 545.568 58.1049 546.887 58.1049 549.646L58.1049 568.359C58.1049 571.119 57.0254 572.438 54.7679 572.438L48.4863 572.438L48.4863 589.232L57.5162 589.232C65.7609 589.232 71.4534 582.274 71.4534 572.198L71.4534 545.328C71.4534 535.251 65.7609 528.294 57.5162 528.294L44.7565 528.294C37.2972 528.294 32.4878 535.491 30.6231 545.568L26.697 567.88C26.2062 570.759 25.4212 571.958 23.3599 571.958L16.6855 571.958C14.428 571.958 13.3485 570.639 13.3485 567.88L13.3485 550.606C13.3485 547.847 14.428 546.527 16.6855 546.527L22.1822 546.527L22.1822 529.733ZM0.392785 455.959L0.392786 518.337L13.545 518.337L13.545 495.785L71.0609 495.785L71.0609 478.511L13.545 478.511L13.545 455.959L0.392785 455.959ZM71.0609 400.539L71.0609 381.945L0.392785 409.776L0.392785 429.928L71.0609 457.759L71.0609 439.885C52.6749 433.227 34.2906 426.613 15.9005 419.972C34.289 413.502 52.6833 407.055 71.0609 400.539ZM28.3655 325.565C30.6231 325.565 31.7026 326.885 31.7026 329.643L31.7026 352.076L13.741 352.076L13.741 329.643C13.741 326.885 14.821 325.565 17.0783 325.565L28.3655 325.565Z" fill="#F3F7F9"/>
</g>
</svg>

<svg width="72" height="590" fill="none" xmlns="http://www.w3.org/2000/svg"><g opacity=".65"><mask id="a" style="mask-type:alpha" maskUnits="userSpaceOnUse" x="58" y="400" width="14" height="40"><path d="m71.06 439.405-12.235-19.433 12.236-19.433c-2.58 12.955-2.58 25.91 0 38.866Z" fill="#fff"/></mask><g mask="url(#a)"><path fill-rule="evenodd" clip-rule="evenodd" d="m71.06 439.405-12.235-19.433 12.236-19.433c-2.58 12.955-2.58 25.91 0 38.866Z" fill="#F3F7F9"/></g><path fill-rule="evenodd" clip-rule="evenodd" d="M71.06 290.178v-44.625c0-10.076-5.692-17.034-13.937-17.034H45.542c-4.81 0-8.343 2.88-10.6 8.517-2.454-5.038-5.988-7.557-10.6-7.557H14.33c-8.245 0-13.937 6.957-13.937 17.034v43.665H71.06Zm-57.515-17.274v-22.072c0-2.759 1.08-4.079 3.337-4.079h8.441c2.748 0 3.337.84 3.337 4.079v22.072H13.545Zm27.678 0v-21.593c0-3.958.393-5.518 3.141-5.518h10.208c2.257 0 3.337 1.32 3.337 4.079v23.032H41.223Zm13.938-104.843 15.9-5.638v-18.594L.393 171.659v20.153l70.668 27.831v-17.874l-15.9-5.758v-27.95Zm-13.349 4.678v18.474l-25.911-9.357 25.911-9.117Zm-19.63-97.166h-8.245C5.693 75.573 0 82.531 0 92.607v25.431c0 10.077 5.693 17.034 13.937 17.034h11.975c7.46 0 12.268-7.197 14.133-17.274l3.926-22.312c.491-2.879 1.277-4.078 3.338-4.078h7.459c2.257 0 3.337 1.32 3.337 4.078V114.2c0 2.759-1.08 4.079-3.337 4.079h-6.282v16.793h9.03c8.245 0 13.937-6.957 13.937-17.034v-26.87c0-10.077-5.692-17.034-13.937-17.034h-12.76c-7.459 0-12.268 7.197-14.133 17.274l-3.926 22.312c-.49 2.879-1.276 4.078-3.337 4.078h-6.674c-2.258 0-3.338-1.319-3.338-4.078V96.446c0-2.759 1.08-4.079 3.338-4.079h5.496V75.573ZM71.061 56.5V0H57.712v39.226H41.616V7.437H28.267V56.5h42.794ZM13.74 39.226V0H.393v56.5H13.74V39.226Zm30.526 280.821c-1.669-7.197-6.674-11.756-13.348-11.756H14.33c-8.245 0-13.937 6.957-13.937 17.034v44.025H71.06v-17.274H44.854V338.16l26.207-13.915v-18.593l-26.795 14.395ZM22.182 529.733h-8.245C5.693 529.733 0 536.69 0 546.767v25.431c0 10.076 5.693 17.034 13.937 17.034h11.975c7.46 0 12.268-7.197 14.133-17.274l3.926-22.312c.491-2.879 1.277-4.078 3.338-4.078h7.459c2.257 0 3.337 1.319 3.337 4.078v18.713c0 2.76-1.08 4.079-3.337 4.079h-6.282v16.794h9.03c8.245 0 13.937-6.958 13.937-17.034v-26.87c0-10.077-5.692-17.034-13.937-17.034h-12.76c-7.459 0-12.268 7.197-14.133 17.274l-3.926 22.312c-.49 2.879-1.276 4.078-3.337 4.078h-6.674c-2.258 0-3.338-1.319-3.338-4.078v-17.274c0-2.759 1.08-4.079 3.338-4.079h5.496v-16.794ZM.392 455.959v62.378h13.153v-22.552h57.516v-17.274H13.545v-22.552H.393Zm70.669-55.42v-18.594L.393 409.776v20.152l70.668 27.831v-17.874c-18.386-6.658-36.77-13.272-55.16-19.913 18.388-6.47 36.782-12.917 55.16-19.433Zm-42.696-74.974c2.258 0 3.338 1.32 3.338 4.078v22.433H13.74v-22.433c0-2.758 1.08-4.078 3.337-4.078h11.288Z" fill="#F3F7F9"/></g></svg>
